X: 21450
T: Kevin McHugh's
R: jig
M: 6/8
K: Gmajor
Bdd ded|BAB G2B|AGE DEG|AGE D3|
Bdd ded|BAB G2B|AGE DEG|ABA G2A:|
B2G GBd|c2A ABc|B2G GFG|ABc d2c|
B2G GBd|cBc A2B|AGE DEG|ABA G2A:|

